src/pos-icons/video-check-outline.svg

<svg height="24" viewBox="0 0 24 24" width="24" xmlns="http://www.w3.org/2000/svg"><path d="m15 8v8h-10v-8zm1-2h-12c-.55 0-1 .45-1 1v10c0 .55.45 1 1 1h12c.55 0 1-.45 1-1v-3.5l4 4v-11l-4 4v-3.5c0-.55-.45-1-1-1m-9.65 6.08 1.15-1.13 1.5 1.55 3.5-3.5 1.15 1.37-4.65 4.63z"/></svg>

<?xml version="1.0" encoding="UTF-8"?><!DOCTYPE svg PUBLIC "-//W3C//DTD SVG 1.1//EN" "http://www.w3.org/Graphics/SVG/1.1/DTD/svg11.dtd"><svg xmlns="http://www.w3.org/2000/svg" xmlns:xlink="http://www.w3.org/1999/xlink" version="1.1" id="mdi-video-check-outline" width="24" height="24" viewBox="0 0 24 24"><path d="M15 8V16H5V8H15M16 6H4C3.45 6 3 6.45 3 7V17C3 17.55 3.45 18 4 18H16C16.55 18 17 17.55 17 17V13.5L21 17.5V6.5L17 10.5V7C17 6.45 16.55 6 16 6M6.35 12.08L7.5 10.95L9 12.5L12.5 9L13.65 10.37L9 15L6.35 12.08Z" /></svg>
